X:1
T:Room for the Penitent
T:Room for the Penitent
T:Robert Lowry
T:Frances Jane (Fanny) Crosby, 1877
T:Public Domain Courtesy of the Cyber Hymnal™
T:Public Domain Courtesy of the Cyber Hymnal™
C:Robert Lowry
Z:Public Domain
Z:Courtesy of the Cyber Hymnal™
%%score ( 1 2 ) ( 3 4 )
L:1/8
Q:1/4=100
M:4/4
K:Bb
V:1 treble 
V:2 treble 
V:3 bass 
V:4 bass 
V:1
 [DF]2 [B,D][EG] [EG][DF] [DF]2 | [EG]2 [EB][EG] ([EG]2 [DF]2) | [DF]2 [EG][FA] [FB][Fc] [Fd]2 | %3
w: 1.~Room for the pen- i- tent,|bur- dened with sin, *|Room at the o- pen door—|
w: 2.~Room where the liv- ing stream|flows at His feet, *|Room at the throne of grace—|
w: 3.~Room at the bless- èd feast|God has pre- pared, *|Room where the bread of life|
 [Gd]2 [=Ec][EG] [Ec]4 x2 | [DF]2 [B,D][EG] [EG][DF] [DF]2 | [EG]2 [=Ec][GB] ([FB]2 [_EA]2) | %6
w: let him come in;|Wea- ry and tem- pest tossed,|where can he flee? *|
w: God’s mer- cy seat;|There may the brok- en heart|lose all its grief, *|
w: mil- lions have shared;|Room where the smiles of love|ten- der- ly fall; *|
 [DB]2 [DB][DB] [DB][Fd] !fermata![Ge]2 | (dc)[FB][EA] [DB]4 || %8
w: Je- sus, Thou Lamb of God,|on- * ly to Thee.|
w: There may the con- trite soul|find * sweet re- lief.|
w: Room in Thy arms, O Christ,|room, * room for all.|
"^Refrain" [Fc]2 [FB][Fc] [Fd][Fc] [Fc]2 | [Fd]2 [Fc][=EB] ([FB]2 [_EA]2) | %10
w: ||
w: Room for the pen- i- tent;|where can he flee? *|
w: ||
 [DB]2 [DB][DB] [Ec][Fd] !fermata![Ge]2 | (dc)[FB][EA] [DB]4 |] %12
w: ||
w: Je- sus, Thou Lamb of God,|on- * ly to Thee.|
w: ||
V:2
 x8 | x8 | x8 | x10 | x8 | x8 | x8 | G2 x6 || x8 | x8 | x8 | G2 x6 |] %12
V:3
 [B,,B,]2 [B,,F,][B,,B,] [B,,B,][B,,B,] [B,,B,]2 | [E,B,]2 [E,G,][E,B,] [B,,B,]4 | %2
 [B,,B,]2 [E,B,][E,C] [D,B,][F,A,] B,2 | [G,B,]2 [G,C][G,B,] z2 x4 | %4
 [B,,B,]2 [B,,F,][B,,B,] [B,,B,][B,,B,] [B,,B,]2 | [E,B,]2 [C,C][=E,C] ([F,D]2 [^F,C]2) | %6
 [G,B,]2 [G,B,][G,B,] [E,G,][D,=B,] [C,C]2 | ([D,B,][E,E])[F,D][F,C] [B,,B,]4 || %8
 [F,A,]2 [F,G,][F,A,] [F,B,][F,A,] [F,A,]2 | B,2 [A,C][G,C] (D2 C2) | %10
 [G,B,]2 [G,B,][G,B,] [E,G,][D,=B,] !fermata![C,C]2 | ([D,B,][E,E])[F,D][F,C] [B,,B,]4 |] %12
V:4
 x8 | x8 | x6 B,2 | x4 [F,A,]4 (3(E,D,{C,,}C,) | x8 | x8 | x8 | x8 || x8 | B,2 F,4 x2 | x8 | x8 |] %12

